X: 1014
T: The Jolly Joker
N:"Collected by J.O'Neill"
B:O'Neill's 1014
Z:Transcribed by Dan G. Petersen, dangp@post6.tele.dk
Z:Missing fractional beam in line 1 bar 1 inserted
M:6/8
L:1/8
K:D
D>dd dFG|ABG FGE|D>dd dFA|GBA GFE|
D>dd F>dd|E>dd D>dd|fdB AGF|EBA GFE:|
FEF DzD|DFA AGE|FEF D3|gdB Bcd|
FEF DzD|DFA AGF|G>BG F>AF|E>BA GFE:|


